;FLAVOR:Marlin
;TIME:14600
;Filament used: 11.3126m
;Layer height: 0.2
;MINX:0
;MINY:86.5
;MINZ:0.2
;MAXX:220
;MAXY:133.5
;MAXZ:22
;TARGET_MACHINE.NAME:Creality Ender-3
;Generated with Cura_SteamEngine 5.6.0
M140 S50
M105
M190 S50
M104 S200
M105
M109 S200
M82 ;absolute extrusion mode
; Ender 3 Custom Start G-code
G92 E0 ; Reset Extruder
G28 ; Home all axes
G1 Z2.0 F3000 ; Move Z Axis up little to prevent scratching of Heat Bed
G1 X0.1 Y20 Z0.3 F5000.0 ; Move to start position
G1 X0.1 Y200.0 Z0.3 F1500.0 E15 ; Draw the first line
G1 X0.4 Y200.0 Z0.3 F5000.0 ; Move to side a little
G1 X0.4 Y20 Z0.3 F1500.0 E30 ; Draw the second line
G92 E0 ; Reset Extruder
G1 Z2.0 F3000 ; Move Z Axis up little to prevent scratching of Heat Bed
G1 X5 Y20 Z0.3 F5000.0 ; Move over to prevent blob squish
G92 E0
G92 E0
G1 F2700 E-5
;LAYER_COUNT:110
;LAYER:0
M107
G0 F6000 X0.00 Y86.696 Z0.2
;TYPE:SKIRT
G1 F2700 E0
G1 F1200 X0.466 Y86.611 E0.01575
G1 X1.605 Y86.515 E0.05377
G1 X2.262 Y86.5 E0.07563
G1 X217.354 Y86.5 E7.22962
G1 X218.234 Y86.513 E7.25889
G1 X219.207 Y86.572 E7.29131
G1 X220 Y86.692 E7.31799
G1 F2700 E2.31799
G0 F6000 X0.00 Y87.102
G1 F2700 E7.31799
G1 F1200 X0.5 Y87.01 E7.3349
G1 X1.639 Y86.914 E7.37292
G1 X2.271 Y86.9 E7.39394
G1 X217.348 Y86.9 E14.54743
G1 X218.21 Y86.912 E14.5761
G1 X219.147 Y86.968 E14.60732
G1 X220 Y87.097 E14.63602
G1 F2700 E9.63602
G0 F6000 X0.00 Y87.509
G1 F2700 E14.63602
G1 F1200 X0.534 Y87.409 E14.65409
G1 X1.673 Y87.313 E14.6921
G1 X2.28 Y87.3 E14.7123
G1 X217.343 Y87.3 E21.86532
G1 X218.187 Y87.311 E21.8934
G1 X219.089 Y87.364 E21.92345
G1 X220 Y87.5 E21.95409
G1 F2700 E16.95409
G0 F6000 X220 Y133.304
G1 F2700 E21.95409
G1 F1200 X219.546 Y133.387 E21.96944
G1 X218.395 Y133.485 E22.00786
G1 X217.72 Y133.5 E22.03031
G1 X2.514 Y133.499 E29.18809
G1 X1.781 Y133.488 E29.21248
G1 X0.807 Y133.43 E29.24493
G1 X0.00 Y133.306 E29.27208
G0 F6000 X0.00 Y132.902
G1 F1200 X0.868 Y133.035 E29.30129
G1 X1.804 Y133.089 E29.33247
G1 X2.52 Y133.099 E29.35629
G1 X217.72 Y133.1 E36.51387
G1 X218.361 Y133.086 E36.5352
G1 X219.512 Y132.988 E36.57362
G1 X220 Y132.898 E36.59012
G1 F2700 E31.59012
G0 F6000 X0.00 Y132.499
G1 F2700 E36.59012
G1 F1200 X0.926 Y132.639 E36.62127
G1 X1.827 Y132.69 E36.65129
G1 X2.525 Y132.699 E36.6745
G1 X217.72 Y132.7 E43.83192
G1 X218.327 Y132.687 E43.85211
G1 X219.478 Y132.589 E43.89053
G1 X220 Y132.491 E43.9082
G1 F2700 E38.9082
;MESH:Light Bar - v4.stl
G0 F6000 X217.636 Y123.165
G0 X209.986 Y112.852
;TYPE:WALL-INNER
G1 F2700 E43.9082
G1 F1200 X209.445 Y112.142 E43.93789
G1 X209.066 Y111.322 E43.96793
G1 X208.875 Y110.462 E43.99723
G1 X208.876 Y109.53 E44.02823
G1 X209.066 Y108.678 E44.05727
G1 X209.445 Y107.858 E44.08731
G1 X209.986 Y107.148 E44.117
G1 X210.666 Y106.564 E44.14681
G1 X211.456 Y106.144 E44.17657
G1 X212.323 Y105.901 E44.20652
G1 X213.226 Y105.851 E44.2366
G1 X214.11 Y105.996 E44.26639
G1 X214.947 Y106.33 E44.29637
G1 X215.688 Y106.832 E44.32614
G1 X216.31 Y107.492 E44.3563
G1 X216.772 Y108.254 E44.38594
G1 F1206 X217.057 Y109.114 E44.41592
G1 F1286.9 X217.125 Y110 E44.44348
G1 X217.059 Y110.866 E44.47042
G1 F1206 X216.773 Y111.745 E44.50101
G1 F1200 X216.31 Y112.508 E44.53069
G1 X215.688 Y113.168 E44.56086
G1 X214.947 Y113.67 E44.59063
G1 X214.109 Y114.004 E44.62063
G1 X213.243 Y114.143 E44.6498
G1 X212.325 Y114.1 E44.68037
G1 X211.456 Y113.856 E44.71039
G1 X210.666 Y113.436 E44.74015
G1 X209.986 Y112.852 E44.76996
G1 F2700 E39.76996
G0 F6000 X209.475 Y112.352
G0 X211.4 Y114.008
G0 X214.156 Y114.159
G0 X216.439 Y112.605
G0 X217.26 Y110.861
G0 X217.278 Y121.728
G0 X166.414 Y121.799
G0 X165.701 Y121.81
G1 F2700 E44.76996
G1 F880.7 X165.852 Y121.844 E44.77697
G1 F993.8 X167.103 Y121.872 E44.82723
G1 F1124.1 X168.354 Y121.9 E44.87166
G1 F1200 X217.45 Y121.9 E46.5046
G1 F1209.1 X217.453 Y110.849 E46.8694
G1 F1290.3 X217.475 Y110 E46.89567
G1 X217.453 Y109.151 E46.92194
G1 F1209.1 X217.45 Y98.1 E47.28674
G1 F1200 X168.353 Y98.1 E48.91971
G1 F1124.1 X167.102 Y98.128 E48.96414
G1 F993.8 X165.851 Y98.156 E49.01439
G1 F880.7 X165.701 Y98.19 E49.02136
G1 X165.832 Y98.262 E49.02814
G1 F993.8 X168.205 Y99.268 E49.13165
G1 F1124.1 X170.364 Y100.734 E49.22431
G1 F1200 X172.178 Y102.648 E49.31202
G1 X173.532 Y104.897 E49.39933
G1 X174.367 Y107.39 E49.48678
G1 X174.654 Y110 E49.57411
G1 X174.367 Y112.61 E49.66144
G1 X173.532 Y115.103 E49.74888
G1 X172.178 Y117.352 E49.8362
G1 X170.364 Y119.266 E49.92391
G1 F1124.1 X168.205 Y120.732 E50.01656
G1 F993.8 X165.832 Y121.738 E50.12008
G1 F880.7 X165.701 Y121.81 E50.12685
G1 F898.9 X165.136 Y121.856 E50.15202
G1 F1086 X164.571 Y121.902 E50.17285
G1 F2700 E45.17285
G0 F6000 X165.708 Y121.555
G0 X168.116 Y120.595
G0 X170.262 Y119.14
G0 X172.046 Y117.257
G0 X173.383 Y115.035
G0 X174.212 Y112.578
G0 X174.492 Y110
G0 X174.212 Y107.422
G0 X173.383 Y104.965
G0 X172.046 Y102.743
G0 X170.262 Y100.86
G0 X168.524 Y99.681
G0 X166.382 Y98.431
G0 X165.701 Y98.19
G1 F2700 E50.17285
G1 F900.6 X165.137 Y98.145 E50.19793
G1 F1093.4 X164.572 Y98.099 E50.21862
G1 F2700 E45.21862
G0 F6000 X163.765 Y98.058
G0 X61.415 Y98.201
G0 X60.701 Y98.19
G1 F2700 E50.21862
G1 F900.6 X60.137 Y98.145 E50.2437
G1 F1093.4 X59.572 Y98.099 E50.26439
G1 F2700 E45.26439
G0 F6000 X60.708 Y98.445
G0 X63.116 Y99.405
G0 X65.262 Y100.86
G0 X67.046 Y102.743
G0 X68.383 Y104.965
G0 X69.212 Y107.422
G0 X69.492 Y110
G0 X69.212 Y112.578
G0 X68.383 Y115.035
G0 X67.046 Y117.257
G0 X65.262 Y119.14
G0 X63.116 Y120.595
G0 X61.282 Y121.706
G0 X60.701 Y121.81
G1 F2700 E50.26439
G1 F898.9 X60.136 Y121.856 E50.28956
G1 F1086 X59.571 Y121.902 E50.31039
G0 F6000 X63.353 Y121.799
G0 X63.353 Y121.9
G1 F1200 X160.191 Y121.899 E53.53124
G1 X158.005 Y121.292 E53.6067
G1 X155.676 Y120.057 E53.69438
G1 X153.68 Y118.361 E53.78149
G1 X152.086 Y116.268 E53.869
G1 X150.985 Y113.876 E53.95658
G1 X150.423 Y111.334 E54.04317
G1 X150.423 Y108.666 E54.1319
G1 X150.985 Y106.124 E54.21849
G1 X152.086 Y103.732 E54.30608
G1 X153.68 Y101.639 E54.39358
G1 X155.676 Y99.943 E54.48069
G1 X158.005 Y98.708 E54.56837
G1 X160.191 Y98.101 E54.64383
G1 X63.353 Y98.1 E57.86468
G1 F1124.1 X62.102 Y98.128 E57.90911
G1 F993.8 X60.851 Y98.156 E57.95936
G1 F880.7 X60.701 Y98.19 E57.96633
G1 X60.832 Y98.262 E57.9731
G1 F993.8 X63.205 Y99.268 E58.07662
G1 F1124.1 X65.364 Y100.734 E58.16928
G1 F1200 X67.178 Y102.648 E58.25698
G1 X68.532 Y104.897 E58.3443
G1 X69.367 Y107.39 E58.43174
G1 X69.654 Y110 E58.51907
G1 X69.367 Y112.61 E58.60641
G1 X68.532 Y115.103 E58.69385
G1 X67.178 Y117.352 E58.78116
G1 X65.364 Y119.266 E58.86887
G1 F1124.1 X63.205 Y120.732 E58.96153
G1 F993.8 X60.832 Y121.738 E59.06504
G1 F880.7 X60.701 Y121.81 E59.07182
G1 X60.852 Y121.844 E59.07883
G1 F993.8 X62.103 Y121.872 E59.12908
G1 F1124.1 X63.354 Y121.9 E59.17351
G0 F6000 X63.354 Y121.799
G0 X58.67 Y121.957
G0 X55.191 Y121.899
G1 F1200 X53.005 Y121.292 E59.24897
G1 X50.676 Y120.057 E59.33665
G1 X48.68 Y118.361 E59.42377
G1 X47.086 Y116.268 E59.51127
G1 X45.985 Y113.876 E59.59885
G1 X45.418 Y111.319 E59.68596
G1 X45.423 Y108.666 E59.7742
G1 X45.985 Y106.124 E59.86079
G1 X47.086 Y103.732 E59.94837
G1 X48.68 Y101.639 E60.03588
G1 X50.676 Y99.943 E60.12299
G1 X53.005 Y98.708 E60.21067
G1 X55.191 Y98.101 E60.28613
G1 X2.551 Y98.101 E62.03694
G1 X2.55 Y108.684 E62.38894
G1 F1263.2 X2.531 Y109.614 E62.41833
G1 F1333.3 X2.53 Y110.377 E62.44117
G1 F1263.2 X2.551 Y111.315 E62.47081
G1 F1200 X2.551 Y121.899 E62.82284
G1 X55.191 Y121.899 E64.57365
G1 F2700 E59.57365
G0 F6000 X2.723 Y121.727
G0 X2.671 Y110.377
G0 X2.711 Y109.574
G0 X2.754 Y110.49
G0 X3.866 Y112.966
G0 X6.296 Y114.258
G0 X9.218 Y113.607
G0 X9.686 Y113.165
G1 F2700 E64.57365
G1 F1200 X8.949 Y113.669 E64.60335
G1 X8.11 Y114.004 E64.63339
G1 X7.226 Y114.149 E64.66319
G1 X6.323 Y114.099 E64.69327
G1 X5.46 Y113.857 E64.72308
G1 X4.668 Y113.437 E64.7529
G1 X3.983 Y112.854 E64.78281
G1 X3.445 Y112.149 E64.81231
G1 X3.06 Y111.319 E64.84274
G1 F1253.3 X2.895 Y110.479 E64.87
G1 F1311.5 X2.891 Y109.535 E64.89873
G1 F1253.3 X3.062 Y108.677 E64.9266
G1 F1200 X3.445 Y107.851 E64.95688
G1 X3.983 Y107.146 E64.98637
G1 X4.667 Y106.564 E65.01624
G1 X5.46 Y106.143 E65.04611
G1 X6.323 Y105.9 E65.07593
G1 X7.235 Y105.853 E65.1063
G1 X8.11 Y105.996 E65.13579
G1 X8.949 Y106.331 E65.16584
G1 X9.686 Y106.835 E65.19553
G1 X10.306 Y107.492 E65.22558
G1 X10.768 Y108.256 E65.25527
G1 X11.049 Y109.089 E65.28451
G1 X11.154 Y109.999 E65.31498
G1 X11.058 Y110.869 E65.34409
G1 X10.768 Y111.744 E65.37475
G1 X10.306 Y112.508 E65.40445
G1 X9.686 Y113.165 E65.43449
G0 F6000 X9.426 Y112.861
;TYPE:WALL-OUTER
G1 F1200 X8.741 Y113.321 E65.46194
G1 X7.982 Y113.619 E65.48906
G1 X7.182 Y113.745 E65.51599
G1 X6.369 Y113.696 E65.54308
G1 X5.591 Y113.474 E65.56999
G1 X4.879 Y113.091 E65.59688
G1 X4.263 Y112.562 E65.62389
G1 X3.8 Y111.955 E65.64928
G1 X3.44 Y111.175 E65.67785
G1 X3.272 Y110.413 E65.70381
G1 X3.275 Y109.571 E65.73181
G1 X3.454 Y108.783 E65.75869
G1 X3.8 Y108.045 E65.7858
G1 X4.263 Y107.438 E65.81119
G1 X4.915 Y106.885 E65.83962
G1 X5.631 Y106.51 E65.86651
G1 X6.412 Y106.297 E65.89343
G1 X7.226 Y106.257 E65.92054
G1 X8.024 Y106.393 E65.94746
G1 X8.779 Y106.699 E65.97456
G1 X9.426 Y107.139 E66.00058
G1 X9.999 Y107.751 E66.02847
G1 X10.394 Y108.403 E66.05382
G1 X10.661 Y109.187 E66.08137
G1 X10.75 Y109.989 E66.10821
G1 X10.664 Y110.799 E66.1353
G1 X10.394 Y111.597 E66.16332
G1 X9.973 Y112.283 E66.19009
G1 X9.426 Y112.861 E66.21656
G1 F2700 E61.21656
G0 F6000 X9.218 Y113.607
G0 X6.296 Y114.258
G0 X3.866 Y112.966
G0 X2.754 Y110.49
G0 X2.711 Y109.574
G0 X2.677 Y110.52
G0 X2.723 Y121.727
G0 X58.149 Y121.974
G0 X60.708 Y121.555
G0 X63.192 Y120.616
G0 X63.026 Y120.37
G1 F2700 E66.21656
G1 F1200 X60.622 Y121.327 E66.30262
G1 X59.508 Y121.509 E66.34016
G1 F993.8 X59.128 Y121.656 E66.35652
G1 F914.3 X58.126 Y121.775 E66.40057
G1 F919.5 X55.552 Y121.669 E66.51239
G1 F898.9 X54.747 Y121.415 E66.54987
G1 F1000 X53.941 Y121.161 E66.5836
G1 F1126.8 X53.135 Y120.907 E66.61353
G1 F1200 X50.886 Y119.71 E66.69827
G1 X48.958 Y118.067 E66.78252
G1 X47.443 Y116.077 E66.86571
G1 X46.359 Y113.73 E66.95169
G1 X45.818 Y111.271 E67.03544
G1 X45.819 Y108.722 E67.12022
G1 X46.359 Y106.27 E67.20372
G1 X47.443 Y103.923 E67.28971
G1 X48.958 Y101.933 E67.3729
G1 X50.922 Y100.266 E67.45858
G1 X53.135 Y99.093 E67.54188
G1 F1108.5 X54.345 Y98.719 E67.58748
G1 F961.9 X55.556 Y98.345 E67.64007
G1 F882.4 X55.58 Y98.328 E67.6414
G1 F924.9 X58.126 Y98.225 E67.75136
G1 F916 X59.128 Y98.344 E67.79533
G1 F995.9 X59.508 Y98.49 E67.81164
G1 F1200 X60.622 Y98.673 E67.84919
G1 X63.026 Y99.63 E67.93525
G1 X65.12 Y101.058 E68.01955
G1 X66.867 Y102.908 E68.10418
G1 X68.155 Y105.045 E68.18717
G1 X68.976 Y107.474 E68.27245
G1 X69.25 Y109.989 E68.35659
G1 X68.976 Y112.526 E68.44146
G1 X68.155 Y114.955 E68.52674
G1 X66.841 Y117.126 E68.61115
G1 X65.087 Y118.97 E68.69579
G1 X63.026 Y120.37 E68.77866
G1 F2700 E63.77866
G0 F6000 X63.192 Y120.616
G0 X61.282 Y121.706
G0 X157.987 Y121.799
G0 X157.987 Y122.299
G1 F2700 E68.77866
G1 F1126.8 X158.816 Y122.273 E68.80804
G1 F1000 X159.646 Y122.247 E68.84118
G1 F898.9 X160.476 Y122.221 E68.87806
G1 F887.2 X161.802 Y122.239 E68.93771
G1 F954.3 X163.127 Y122.258 E68.99313
G1 F914.3 X164.173 Y122.217 E69.03883
G1 F993.8 X164.571 Y122.3 E69.05516
G1 F1200 X217.85 Y122.3 E70.82723
G1 X217.85 Y97.7 E71.64543
G1 X164.572 Y97.702 E73.41746
G1 F995.9 X164.174 Y97.783 E73.43374
G1 F917.8 X163.1 Y97.742 E73.48048
G1 F924.9 X160.533 Y97.777 E73.59127
G1 F882.4 X160.477 Y97.766 E73.59385
G1 F961.9 X159.232 Y97.734 E73.64552
G1 F1108.5 X157.987 Y97.701 E73.69036
G1 F1200 X59.572 Y97.702 E76.96366
G1 F995.9 X59.174 Y97.783 E76.97994
G1 F917.8 X58.1 Y97.742 E77.02668
G1 F924.9 X55.533 Y97.777 E77.13747
G1 F882.4 X55.477 Y97.766 E77.14005
G1 F961.9 X54.232 Y97.734 E77.19172
G1 F1108.5 X52.987 Y97.701 E77.23656
G1 F1200 X2.151 Y97.701 E78.92738
G1 X2.151 Y122.299 E79.74551
G1 X52.987 Y122.299 E81.43632
G1 F1126.8 X53.816 Y122.273 E81.4657
G1 F1000 X54.646 Y122.247 E81.49884
G1 F898.9 X55.476 Y122.221 E81.53571
G1 F887.2 X56.802 Y122.239 E81.59537
G1 F954.3 X58.127 Y122.258 E81.65079
G1 F914.3 X59.173 Y122.217 E81.69649
G1 F993.8 X59.571 Y122.3 E81.71282
G1 F1200 X157.987 Y122.299 E84.98615
G0 F6000 X157.987 Y121.799
G0 X158.135 Y120.907
G1 F1200 X155.886 Y119.71 E85.07088
G1 X153.958 Y118.067 E85.15514
G1 X152.443 Y116.077 E85.23832
G1 X151.359 Y113.73 E85.32431
G1 X150.819 Y111.278 E85.40782
G1 X150.818 Y108.736 E85.49236
G1 X151.359 Y106.27 E85.57633
G1 X152.443 Y103.923 E85.66232
G1 X153.958 Y101.933 E85.7455
G1 X155.922 Y100.266 E85.83118
G1 X158.135 Y99.093 E85.91449
G1 F1108.5 X159.345 Y98.719 E85.96009
G1 F961.9 X160.556 Y98.345 E86.01268
G1 F882.4 X160.58 Y98.328 E86.01401
G1 F924.9 X163.126 Y98.225 E86.12397
G1 F916 X164.128 Y98.344 E86.16793
G1 F995.9 X164.508 Y98.49 E86.18425
G1 F1200 X165.622 Y98.673 E86.2218
G1 X168.026 Y99.63 E86.30786
G1 X170.12 Y101.058 E86.39216
G1 X171.867 Y102.908 E86.47679
G1 X173.155 Y105.045 E86.55978
G1 X173.976 Y107.474 E86.64506
G1 X174.25 Y110.011 E86.72993
G1 X173.976 Y112.526 E86.81407
G1 X173.155 Y114.955 E86.89935
G1 X171.841 Y117.126 E86.98375
G1 X170.087 Y118.97 E87.0684
G1 X168.026 Y120.37 E87.15127
G1 X165.622 Y121.327 E87.23733
G1 X164.508 Y121.509 E87.27487
G1 F993.8 X164.128 Y121.656 E87.29124
G1 F914.3 X163.126 Y121.775 E87.33528
G1 F919.5 X160.552 Y121.669 E87.4471
G1 F898.9 X159.747 Y121.415 E87.48458
G1 F1000 X158.941 Y121.161 E87.51831
G1 F1126.8 X158.135 Y120.907 E87.54825
G1 F2700 E82.54825
G0 F6000 X158.135 Y121.799
G0 X163.149 Y121.974
G0 X217.278 Y121.728
G0 X217.26 Y110.861
G0 X215.796 Y113.29
G0 X213.225 Y114.309
G0 X211.079 Y113.711
G0 X210.038 Y112.759
G0 X210.277 Y112.578
G1 F2700 E87.54825
G1 F1200 X209.8 Y111.955 E87.57434
G1 X209.44 Y111.176 E87.60289
G1 X209.271 Y110.406 E87.62911
G1 X209.272 Y109.586 E87.65638
G1 X209.44 Y108.824 E87.68233
G1 X209.8 Y108.045 E87.71087
G1 X210.277 Y107.422 E87.73697
G1 X210.915 Y106.885 E87.76471
G1 X211.631 Y106.51 E87.79159
G1 X212.412 Y106.297 E87.81852
G1 X213.21 Y106.255 E87.84509
G1 X214.024 Y106.393 E87.87255
G1 X214.779 Y106.699 E87.89965
G1 X215.442 Y107.154 E87.92639
G1 X215.999 Y107.751 E87.95355
G1 X216.394 Y108.403 E87.97891
G1 X216.666 Y109.215 E88.00739
G1 X216.75 Y110 E88.03365
G1 X216.665 Y110.798 E88.06034
G1 X216.394 Y111.597 E88.0884
G1 X215.973 Y112.283 E88.11517
G1 X215.409 Y112.874 E88.14234
G1 X214.741 Y113.321 E88.16907
G1 X213.982 Y113.619 E88.1962
G1 X213.21 Y113.745 E88.22221
G1 X212.369 Y113.696 E88.25023
G1 X211.591 Y113.474 E88.27714
G1 X210.879 Y113.091 E88.30403
G1 X210.277 Y112.578 E88.33034
G1 F2700 E83.33034
G0 F6000 X210.038 Y112.759
G0 X211.4 Y114.008
G0 X214.156 Y114.159
G0 X216.439 Y112.605
G0 X217.26 Y110.861
G0 X217.278 Y121.728
G0 X167.154 Y121.799
G0 X167.156 Y121.539
;TYPE:SKIN
G1 F2700 E88.33034
G1 F1200 X168.346 Y121.067 E88.37292
G1 X170.583 Y119.551 E88.4628
G1 X172.452 Y117.589 E88.55292
G1 X173.849 Y115.279 E88.64271
G1 X174.719 Y112.686 E88.73368
G1 X175.016 Y109.989 E88.82392
G1 X174.719 Y107.314 E88.91344
G1 X173.849 Y104.721 E89.00441
G1 X172.478 Y102.445 E89.09278
G1 X170.613 Y100.474 E89.18303
G1 X168.349 Y98.934 E89.2741
G1 X167.152 Y98.461 E89.31691
G1 X217.09 Y98.46 E90.97786
G1 X217.093 Y108.08 E91.29782
G1 X216.609 Y107.292 E91.32858
G1 X215.939 Y106.572 E91.36129
G1 X215.138 Y106.023 E91.39359
G1 X214.187 Y105.644 E91.42764
G1 X213.279 Y105.497 E91.45823
G1 X212.255 Y105.551 E91.49234
G1 X211.309 Y105.815 E91.525
G1 X210.441 Y106.281 E91.55777
